img/svg/Instagram.svg

<svg width="50" height="50" viewBox="0 0 50 50" fill="none" xmlns="http://www.w3.org/2000/svg">
<path d="M25.0056 12.1779C17.9113 12.1779 12.1891 17.9002 12.1891 24.9944C12.1891 32.0887 17.9113 37.8109 25.0056 37.8109C32.0998 37.8109 37.8221 32.0887 37.8221 24.9944C37.8221 17.9002 32.0998 12.1779 25.0056 12.1779ZM25.0056 33.3268C20.4211 33.3268 16.6732 29.5901 16.6732 24.9944C16.6732 20.3988 20.4099 16.662 25.0056 16.662C29.6012 16.662 33.338 20.3988 33.338 24.9944C33.338 29.5901 29.5901 33.3268 25.0056 33.3268ZM41.3358 11.6537C41.3358 13.3157 39.9972 14.6431 38.3464 14.6431C36.6843 14.6431 35.3569 13.3045 35.3569 11.6537C35.3569 10.0028 36.6955 8.66425 38.3464 8.66425C39.9972 8.66425 41.3358 10.0028 41.3358 11.6537ZM49.8243 14.6877C49.6347 10.6832 48.72 7.13608 45.7864 4.21361C42.8639 1.29113 39.3168 0.376464 35.3123 0.175683C31.1852 -0.0585611 18.8148 -0.0585611 14.6877 0.175683C10.6944 0.36531 7.14724 1.27998 4.21361 4.20245C1.27998 7.12493 0.376464 10.6721 0.175683 14.6765C-0.0585611 18.8037 -0.0585611 31.174 0.175683 35.3012C0.36531 39.3056 1.27998 42.8528 4.21361 45.7752C7.14724 48.6977 10.6832 49.6124 14.6877 49.8132C18.8148 50.0474 31.1852 50.0474 35.3123 49.8132C39.3168 49.6235 42.8639 48.7089 45.7864 45.7752C48.7089 42.8528 49.6235 39.3056 49.8243 35.3012C50.0586 31.174 50.0586 18.8148 49.8243 14.6877ZM44.4925 39.7295C43.6224 41.9158 41.9381 43.6001 39.7407 44.4813C36.4501 45.7864 28.6419 45.4852 25.0056 45.4852C21.3692 45.4852 13.5499 45.7752 10.2705 44.4813C8.08422 43.6113 6.39989 41.9269 5.51868 39.7295C4.21361 36.4389 4.51478 28.6308 4.51478 24.9944C4.51478 21.3581 4.22476 13.5388 5.51868 10.2593C6.38873 8.07306 8.07306 6.38873 10.2705 5.50753C13.5611 4.20245 21.3692 4.50362 25.0056 4.50362C28.6419 4.50362 36.4612 4.21361 39.7407 5.50753C41.9269 6.37758 43.6113 8.06191 44.4925 10.2593C45.7975 13.5499 45.4964 21.3581 45.4964 24.9944C45.4964 28.6308 45.7975 36.4501 44.4925 39.7295Z" fill="white"/>
</svg>

<svg width="50" height="50" fill="none" xmlns="http://www.w3.org/2000/svg"><path d="M25.006 12.178a12.796 12.796 0 00-12.817 12.816 12.796 12.796 0 0012.817 12.817 12.796 12.796 0 0012.816-12.817 12.796 12.796 0 00-12.816-12.816zm0 21.149c-4.585 0-8.333-3.737-8.333-8.333 0-4.595 3.737-8.332 8.333-8.332 4.595 0 8.332 3.737 8.332 8.332 0 4.596-3.748 8.333-8.332 8.333zm16.33-21.673a2.983 2.983 0 01-2.99 2.99 2.983 2.983 0 01-2.99-2.99 2.99 2.99 0 015.98 0zm8.488 3.034c-.19-4.005-1.104-7.552-4.038-10.474C42.864 1.29 39.316.376 35.312.176c-4.127-.235-16.497-.235-20.624 0-3.994.19-7.54 1.104-10.474 4.026C1.28 7.125.376 10.672.176 14.677-.06 18.803-.06 31.174.176 35.3c.19 4.005 1.104 7.552 4.038 10.474 2.933 2.923 6.47 3.837 10.474 4.038 4.127.234 16.497.234 20.624 0 4.005-.19 7.552-1.104 10.474-4.038 2.923-2.922 3.837-6.47 4.038-10.474.235-4.127.235-16.486 0-20.613zm-5.331 25.041a8.436 8.436 0 01-4.752 4.752c-3.29 1.305-11.1 1.004-14.735 1.004-3.637 0-11.456.29-14.736-1.004a8.436 8.436 0 01-4.75-4.751c-1.305-3.29-1.004-11.098-1.004-14.735 0-3.636-.29-11.455 1.004-14.735a8.436 8.436 0 014.752-4.751c3.29-1.306 11.098-1.004 14.735-1.004 3.636 0 11.455-.29 14.735 1.004a8.436 8.436 0 014.752 4.751c1.304 3.29 1.003 11.1 1.003 14.735 0 3.637.301 11.456-1.004 14.736z" fill="#fff"/></svg>
